lib/assets/images/logos/soc_logo.svg

<?xml version="1.0" encoding="UTF-8"?>
<svg width="198px" height="41px" viewBox="0 0 198 41" version="1.1" xmlns="http://www.w3.org/2000/svg" xmlns:xlink="http://www.w3.org/1999/xlink">
    <title>Group 4</title>
    <defs>
        <polygon id="path-1" points="0.0378649946 0.061551348 16.027135 0.061551348 16.027135 14.8091409 0.0378649946 14.8091409"></polygon>
    </defs>
    <g id="Symbols" stroke="none" stroke-width="1" fill="none" fill-rule="evenodd">
        <g id="Group-4">
            <path d="M42.8206203,28.5530267 C45.7637647,28.5530267 48.7536257,27.0113797 48.7536257,23.5543529 C48.7536257,20.6345668 46.4177968,19.4666524 44.1286845,18.7659037 L42.4468877,18.2286631 C40.9519572,17.8082139 40.8585241,17.084107 40.8585241,16.7570909 C40.8585241,15.8694759 41.6059893,15.0986524 42.7505455,15.0986524 C44.011893,15.0986524 44.5958503,15.9161925 44.5958503,16.8738824 L48.2631016,16.8738824 C48.2631016,13.7438717 45.9039144,11.8985668 42.8206203,11.8985668 C39.6205348,11.8985668 37.1445561,13.930738 37.1445561,16.8271658 C37.1445561,18.3454545 37.8219465,20.5177754 41.3724064,21.4754652 L43.2877861,22.0594225 C44.7126417,22.5265882 45.063016,23.1105455 45.063016,23.7412193 C45.063016,24.7923422 44.1520428,25.3996578 42.9607701,25.3996578 C41.6994225,25.3996578 40.6716578,24.6054759 40.6716578,23.5777112 L37.0044064,23.5777112 C37.0044064,26.5442139 39.3869519,28.5530267 42.8206203,28.5530267 Z M59.8444064,28.5530267 C64.3759144,28.5530267 68.0431658,24.768984 68.0431658,20.2141176 C68.0431658,15.6592513 64.3759144,11.8985668 59.8444064,11.8985668 C55.2428235,11.8985668 51.6222888,15.6592513 51.6222888,20.2141176 C51.6222888,24.768984 55.2428235,28.5530267 59.8444064,28.5530267 Z M59.8210481,25.096 C57.1114866,25.096 55.3128984,22.9003209 55.3128984,20.2141176 C55.3128984,17.5279144 57.1114866,15.3555936 59.8210481,15.3555936 C62.5072513,15.3555936 64.3525561,17.5279144 64.3525561,20.2141176 C64.3525561,22.9003209 62.5072513,25.096 59.8210481,25.096 Z M79.0405134,28.5530267 C81.8668663,28.5530267 84.3428449,27.1281711 85.8144171,24.9792086 L82.9647059,22.993754 C82.1238075,24.3018182 80.8858182,25.096 79.1806631,25.096 C76.424385,25.096 74.5557219,22.8536043 74.5557219,20.1907594 C74.5557219,17.5279144 76.4944599,15.3555936 79.2040214,15.3555936 C80.8858182,15.3555936 82.1238075,16.1497754 82.9647059,17.4578396 L85.8144171,15.472385 C84.3428449,13.3234225 81.8668663,11.8985668 79.0405134,11.8985668 C74.5090053,11.8985668 70.8651123,15.6592513 70.8651123,20.1907594 C70.8651123,24.768984 74.5090053,28.5530267 79.0405134,28.5530267 Z M92.8642139,28.2727273 L92.8642139,22.6200214 L93.6116791,22.6200214 L97.3022888,28.2727273 L101.576856,28.2727273 L97.4424385,22.4097968 C99.5213262,21.942631 101.203123,19.7703102 101.203123,17.5045561 C101.203123,14.8417112 99.5213262,12.1788663 95.784,12.1788663 L89.1969626,12.1788663 L89.1969626,28.2727273 L92.8642139,28.2727273 Z M95.2000428,19.7235936 L92.8642139,19.7235936 L92.8642139,15.3789519 L95.2934759,15.3789519 C96.7884064,15.3789519 97.5125134,16.523508 97.5125134,17.5979893 C97.5125134,18.6724706 96.8117647,19.7235936 95.2000428,19.7235936 Z M115.727572,28.2727273 L115.727572,25.0726417 L108.860235,25.0726417 L108.860235,21.9893476 L114.699807,21.9893476 L114.699807,18.6958289 L108.860235,18.6958289 L108.860235,15.3789519 L115.517348,15.3789519 L115.517348,12.1788663 L105.192984,12.1788663 L105.192984,28.2727273 L115.727572,28.2727273 Z M121.609455,28.2727273 L122.800727,24.5354011 L128.453433,24.5354011 L129.668064,28.2727273 L133.568898,28.2727273 L127.635893,12.1788663 L123.641626,12.1788663 L117.685262,28.2727273 L121.609455,28.2727273 Z M127.425668,21.3586738 L123.805134,21.3586738 L125.603722,15.6826096 L127.425668,21.3586738 Z M141.436235,28.2727273 L141.436235,15.3789519 L145.687444,15.3789519 L145.687444,12.1788663 L133.517775,12.1788663 L133.517775,15.3789519 L137.768984,15.3789519 L137.768984,28.2727273 L141.436235,28.2727273 Z M155.75046,28.5530267 C160.281968,28.5530267 163.949219,24.768984 163.949219,20.2141176 C163.949219,15.6592513 160.281968,11.8985668 155.75046,11.8985668 C151.148877,11.8985668 147.528342,15.6592513 147.528342,20.2141176 C147.528342,24.768984 151.148877,28.5530267 155.75046,28.5530267 Z M155.727102,25.096 C153.01754,25.096 151.218952,22.9003209 151.218952,20.2141176 C151.218952,17.5279144 153.01754,15.3555936 155.727102,15.3555936 C158.413305,15.3555936 160.25861,17.5279144 160.25861,20.2141176 C160.25861,22.9003209 158.413305,25.096 155.727102,25.096 Z M171.372749,28.2727273 L171.372749,22.6200214 L172.120214,22.6200214 L175.810824,28.2727273 L180.08539,28.2727273 L175.950973,22.4097968 C178.029861,21.942631 179.711658,19.7703102 179.711658,17.5045561 C179.711658,14.8417112 178.029861,12.1788663 174.292535,12.1788663 L167.705497,12.1788663 L167.705497,28.2727273 L171.372749,28.2727273 Z M173.708578,19.7235936 L171.372749,19.7235936 L171.372749,15.3789519 L173.802011,15.3789519 C175.296941,15.3789519 176.021048,16.523508 176.021048,17.5979893 C176.021048,18.6724706 175.320299,19.7235936 173.708578,19.7235936 Z M190.989305,28.2727273 L190.989305,21.0783743 L197.272684,12.1788663 L192.904684,12.1788663 L189.120642,18.1118717 L185.406674,12.1788663 L181.038674,12.1788663 L187.298695,21.0082995 L187.298695,28.2727273 L190.989305,28.2727273 Z" id="SOCREATORY" fill="#000000" fill-rule="nonzero"></path>
            <g id="S-Copy-14">
                <path d="M22.4250877,23.5632975 C21.1441854,22.4856444 18.5069191,23.4602314 16.9408914,22.148121 C15.3750078,20.8359385 15.8890408,18.0646864 14.6082106,16.9870333 C13.8133045,16.318329 12.4960768,16.439702 11.2367968,16.3146533 C10.4666842,16.2381826 9.71819386,16.0697452 9.12401434,15.5718568 C7.55805867,14.2597464 8.07216378,11.4884222 6.79126149,10.4108411 C5.06436419,8.95796985 2.48677536,9.18017454 1.03397616,10.9070718 C-0.418823048,12.6338971 -0.196546283,15.211558 1.53027895,16.6643572 C2.81118124,17.7419382 5.44844748,16.7672791 7.01440315,18.0794616 C8.58043089,19.3916441 8.06618163,22.1628962 9.34722807,23.2405493 C9.82853943,23.6454621 10.5012798,23.7605645 11.2367968,23.8162058 C12.4587424,23.9086049 13.8537381,23.8365307 14.8313523,24.6556537 C16.3973079,25.9678362 15.8831307,28.7391604 17.1641051,29.8168135 C18.8910024,31.2696127 21.4685912,31.0474081 22.9213904,29.3205108 C24.3741176,27.5936855 24.151985,25.0160246 22.4250877,23.5632975" id="Fill-1" fill="#000000"></path>
                <g id="Group-5" transform="translate(7.928160, 0.010523)">
                    <mask id="mask-2" fill="white">
                        <use xlink:href="#path-1"></use>
                    </mask>
                    <g id="Clip-4"></g>
                    <path d="M1.49359319,7.27351703 C1.95847164,7.66466359 2.60238234,7.78509954 3.30863721,7.84290303 C4.54809685,7.9445997 5.98013869,7.85277719 6.97771739,8.68869351 C8.54367306,10.0008039 8.02956794,12.7721281 9.31047024,13.8497092 C11.0373675,15.3025084 13.6149564,15.0803037 15.0677556,13.3534785 C16.5205548,11.6265812 16.2983501,9.04899233 14.5714528,7.59626519 C13.2905505,6.51854001 10.6532842,7.49327119 9.08732858,6.18108871 C7.52130084,4.86890623 8.0355501,2.09765408 6.75450366,1.0199289 C5.76189808,0.1848054 4.48827528,-0.0956352267 3.30863721,0.143795192 C2.43610722,0.320953522 1.61496611,0.782084113 0.9972904,1.51623169 C-0.455508805,3.24312899 -0.233304114,5.82078989 1.49359319,7.27351703" id="Fill-3" fill="#131413" mask="url(#mask-2)"></path>
                </g>
                <path d="M14.5335994,32.9435716 C13.7543334,32.2879848 12.473287,32.3915554 11.2367824,32.2781107 C10.4405789,32.2050995 9.66282648,32.042356 9.04940315,31.5283951 C7.48344748,30.2162847 7.99762467,27.4449605 6.7166503,26.3673794 C4.98982507,24.9145802 2.41216417,25.1367849 0.959437042,26.8636822 C-0.493362163,28.5905074 -0.271157472,31.1680963 1.45566776,32.6208234 C2.73664212,33.6985486 5.37383629,32.7238895 6.93986403,34.0359999 C8.5058197,35.3481824 7.99164251,38.1194345 9.27261688,39.1971597 C9.85569698,39.6876245 10.5357889,39.986444 11.2367824,40.1016186 C12.6119577,40.3275711 14.0675678,39.8446741 15.0299022,38.7008569 C16.4826293,36.9739596 16.2604247,34.3963708 14.5335994,32.9435716" id="Fill-6" fill="#000000"></path>
            </g>
        </g>
    </g>
</svg>

<?xml version="1.0" encoding="utf-8"?>
<!-- Generator: Adobe Illustrator 25.2.1, SVG Export Plug-In . SVG Version: 6.00 Build 0)  -->
<svg version="1.1" id="Ebene_1" xmlns="http://www.w3.org/2000/svg" xmlns:xlink="http://www.w3.org/1999/xlink" x="0px" y="0px"
	 viewBox="0 0 197.3 40.2" style="enable-background:new 0 0 197.3 40.2;" xml:space="preserve">
<style type="text/css">
	.st0{fill-rule:evenodd;clip-rule:evenodd;}
	.st1{filter:url(#Adobe_OpacityMaskFilter);}
	.st2{fill-rule:evenodd;clip-rule:evenodd;fill:#FFFFFF;}
	.st3{mask:url(#mask-2_1_);fill-rule:evenodd;clip-rule:evenodd;fill:#131413;}
</style>
<g id="Symbols">
	<g id="Group-4">
		<path id="SOCREATORY" d="M42.8,28.6c2.9,0,5.9-1.5,5.9-5c0-2.9-2.3-4.1-4.6-4.8l-1.7-0.5c-1.5-0.4-1.6-1.1-1.6-1.5
			c0-0.9,0.7-1.7,1.9-1.7c1.3,0,1.8,0.8,1.8,1.8h3.7c0-3.1-2.4-5-5.4-5c-3.2,0-5.7,2-5.7,4.9c0,1.5,0.7,3.7,4.2,4.6l1.9,0.6
			c1.4,0.5,1.8,1.1,1.8,1.7c0,1.1-0.9,1.7-2.1,1.7c-1.3,0-2.3-0.8-2.3-1.8H37C37,26.5,39.4,28.6,42.8,28.6z M59.8,28.6
			c4.5,0,8.2-3.8,8.2-8.3s-3.7-8.3-8.2-8.3c-4.6,0-8.2,3.8-8.2,8.3S55.2,28.6,59.8,28.6z M59.8,25.1c-2.7,0-4.5-2.2-4.5-4.9
			s1.8-4.9,4.5-4.9c2.7,0,4.5,2.2,4.5,4.9S62.5,25.1,59.8,25.1z M79,28.6c2.8,0,5.3-1.4,6.8-3.6L83,23c-0.8,1.3-2.1,2.1-3.8,2.1
			c-2.8,0-4.6-2.2-4.6-4.9s1.9-4.8,4.6-4.8c1.7,0,2.9,0.8,3.8,2.1l2.8-2c-1.5-2.1-3.9-3.6-6.8-3.6c-4.5,0-8.2,3.8-8.2,8.3
			C70.9,24.8,74.5,28.6,79,28.6z M92.9,28.3v-5.7h0.7l3.7,5.7h4.3l-4.1-5.9c2.1-0.5,3.8-2.6,3.8-4.9c0-2.7-1.7-5.3-5.4-5.3h-6.6
			v16.1H92.9z M95.2,19.7h-2.3v-4.3h2.4c1.5,0,2.2,1.1,2.2,2.2C97.5,18.7,96.8,19.7,95.2,19.7z M115.7,28.3v-3.2h-6.9V22h5.8v-3.3
			h-5.8v-3.3h6.7v-3.2h-10.3v16.1H115.7z M121.6,28.3l1.2-3.7h5.7l1.2,3.7h3.9l-5.9-16.1h-4l-6,16.1H121.6z M127.4,21.4h-3.6
			l1.8-5.7L127.4,21.4z M141.4,28.3V15.4h4.3v-3.2h-12.2v3.2h4.3v12.9H141.4z M155.8,28.6c4.5,0,8.2-3.8,8.2-8.3s-3.7-8.3-8.2-8.3
			c-4.6,0-8.2,3.8-8.2,8.3S151.1,28.6,155.8,28.6z M155.7,25.1c-2.7,0-4.5-2.2-4.5-4.9s1.8-4.9,4.5-4.9c2.7,0,4.5,2.2,4.5,4.9
			S158.4,25.1,155.7,25.1z M171.4,28.3v-5.7h0.7l3.7,5.7h4.3l-4.1-5.9c2.1-0.5,3.8-2.6,3.8-4.9c0-2.7-1.7-5.3-5.4-5.3h-6.6v16.1
			H171.4z M173.7,19.7h-2.3v-4.3h2.4c1.5,0,2.2,1.1,2.2,2.2C176,18.7,175.3,19.7,173.7,19.7z M191,28.3v-7.2l6.3-8.9h-4.4l-3.8,5.9
			l-3.7-5.9H181l6.3,8.8v7.3H191z"/>
		<g id="S-Copy-14">
			<path id="Fill-1" class="st0" d="M22.4,23.6c-1.3-1.1-3.9-0.1-5.5-1.4c-1.6-1.3-1.1-4.1-2.3-5.2c-0.8-0.7-2.1-0.5-3.4-0.7
				c-0.8-0.1-1.5-0.2-2.1-0.7c-1.6-1.3-1.1-4.1-2.3-5.2C5.1,9,2.5,9.2,1,10.9c-1.5,1.7-1.2,4.3,0.5,5.8c1.3,1.1,3.9,0.1,5.5,1.4
				c1.6,1.3,1.1,4.1,2.3,5.2c0.5,0.4,1.2,0.5,1.9,0.6c1.2,0.1,2.6,0,3.6,0.8c1.6,1.3,1.1,4.1,2.3,5.2c1.7,1.5,4.3,1.2,5.8-0.5
				C24.4,27.6,24.2,25,22.4,23.6"/>
			<g id="Group-5" transform="translate(7.928160, 0.010523)">
				<g id="Clip-4">
				</g>
				<defs>
					<filter id="Adobe_OpacityMaskFilter" filterUnits="userSpaceOnUse" x="0" y="0.1" width="16" height="14.7">
						<feColorMatrix  type="matrix" values="1 0 0 0 0  0 1 0 0 0  0 0 1 0 0  0 0 0 1 0"/>
					</filter>
				</defs>
				<mask maskUnits="userSpaceOnUse" x="0" y="0.1" width="16" height="14.7" id="mask-2_1_">
					<g class="st1">
						<polygon id="path-1_1_" class="st2" points="0,0.1 16,0.1 16,14.8 0,14.8 						"/>
					</g>
				</mask>
				<path id="Fill-3" class="st3" d="M1.5,7.3C2,7.7,2.6,7.8,3.3,7.8C4.5,7.9,6,7.9,7,8.7C8.5,10,8,12.8,9.3,13.8
					c1.7,1.5,4.3,1.2,5.8-0.5c1.5-1.7,1.2-4.3-0.5-5.8c-1.3-1.1-3.9-0.1-5.5-1.4C7.5,4.9,8,2.1,6.8,1c-1-0.8-2.3-1.1-3.4-0.9
					C2.4,0.3,1.6,0.8,1,1.5C-0.5,3.2-0.2,5.8,1.5,7.3"/>
			</g>
			<path id="Fill-6" class="st0" d="M14.5,32.9c-0.8-0.7-2.1-0.6-3.3-0.7C10.4,32.2,9.7,32,9,31.5c-1.6-1.3-1.1-4.1-2.3-5.2
				C5,24.9,2.4,25.1,1,26.9c-1.5,1.7-1.2,4.3,0.5,5.8c1.3,1.1,3.9,0.1,5.5,1.4c1.6,1.3,1.1,4.1,2.3,5.2c0.6,0.5,1.3,0.8,2,0.9
				c1.4,0.2,2.8-0.3,3.8-1.4C16.5,37,16.3,34.4,14.5,32.9"/>
		</g>
	</g>
</g>
</svg>
